Papirus-GTK/24x24/apps/gnome-twitch.svg

<svg height="24" viewBox="0 0 48 48.000001" width="24" xmlns="http://www.w3.org/2000/svg"><rect fill="#7b5ab7" height="40" rx="2" transform="matrix(0 -1 -1 0 0 0)" width="40" x="-44" y="-44"/><path d="m13 9l-1 5v21h6v4h3l3-4h4l10-10v-16zm3 2h20v13.917968l-4 4.082032h-7l-5 4v-4h-4zm6 4v8h4v-8zm8 0v8h4v-8z" fill-rule="evenodd" opacity=".2"/><path d="m6.5 4l-.5 2.5v10.5h3v2h1.5l1.5-2h2l5-5v-8zm1.5 1h10v6.958984l-2 2.041016h-3.5l-2.5 2v-2h-2zm3 2v4h2v-4zm4 0v4h2v-4z" fill="#fff" fill-rule="evenodd" transform="scale(2)"/><path d="m6 4c-1.108 0-2 .892-2 2v1c0-1.108.892-2 2-2h36c1.108 0 2 .892 2 2v-1c0-1.108-.892-2-2-2z" fill="#fff" opacity=".2"/><path d="m6 44c-1.108 0-2-.892-2-2v-1c0 1.108.892 2 2 2h36c1.108 0 2-.892 2-2v1c0 1.108-.892 2-2 2z" opacity=".3"/></svg>

<?xml version="1.0" encoding="UTF-8" standalone="no"?>
<!-- Created with Inkscape (http://www.inkscape.org/) -->

<svg
   xmlns:dc="http://purl.org/dc/elements/1.1/"
   xmlns:cc="http://creativecommons.org/ns#"
   xmlns:rdf="http://www.w3.org/1999/02/22-rdf-syntax-ns#"
   xmlns:svg="http://www.w3.org/2000/svg"
   xmlns="http://www.w3.org/2000/svg"
   xmlns:sodipodi="http://sodipodi.sourceforge.net/DTD/sodipodi-0.dtd"
   xmlns:inkscape="http://www.inkscape.org/namespaces/inkscape"
   id="svg4354"
   height="24"
   viewBox="0 0 48 48.000001"
   width="24"
   version="1.1"
   inkscape:version="0.91 r13725"
   sodipodi:docname="gnome-twitch.svg">
  <defs
     id="defs11" />
  <sodipodi:namedview
     pagecolor="#ffffff"
     bordercolor="#666666"
     borderopacity="1"
     objecttolerance="10"
     gridtolerance="10"
     guidetolerance="10"
     inkscape:pageopacity="0"
     inkscape:pageshadow="2"
     inkscape:window-width="1600"
     inkscape:window-height="845"
     id="namedview9"
     showgrid="false"
     inkscape:zoom="1"
     inkscape:cx="10.267539"
     inkscape:cy="12"
     inkscape:window-x="0"
     inkscape:window-y="32"
     inkscape:window-maximized="1"
     inkscape:current-layer="svg4354" />
  <metadata
     id="metadata4359">
    <rdf:RDF>
      <cc:Work
         rdf:about="">
        <dc:format>image/svg+xml</dc:format>
        <dc:type
           rdf:resource="http://purl.org/dc/dcmitype/StillImage" />
        <dc:title />
      </cc:Work>
    </rdf:RDF>
  </metadata>
  <rect
     id="rect4203-1"
     ry="2"
     rx="2"
     transform="matrix(0,-1,-1,0,0,0)"
     height="40"
     width="40"
     y="-44"
     x="-44"
     fill="#7b5ab7" />
  <path
     id="path4149"
     d="m 13,9 -1,5 0,21 6,0 0,4 3,0 3,-4 4,0 L 38,25 38,9 13,9 Z m 3,2 20,0 0,13.917968 L 32,29 l -7,0 -5,4 0,-4 -4,0 0,-18 z m 6,4 0,8 4,0 0,-8 -4,0 z m 8,0 0,8 4,0 0,-8 -4,0 z"
     style="opacity:0.2;fill:#000000;fill-opacity:1;fill-rule:evenodd"
     inkscape:connector-curvature="0" />
  <path
     style="fill:#ffffff;fill-rule:evenodd"
     d="M 6.5 4 L 6 6.5 L 6 17 L 9 17 L 9 19 L 10.5 19 L 12 17 L 14 17 L 19 12 L 19 4 L 6.5 4 z M 8 5 L 18 5 L 18 11.958984 L 16 14 L 12.5 14 L 10 16 L 10 14 L 8 14 L 8 5 z M 11 7 L 11 11 L 13 11 L 13 7 L 11 7 z M 15 7 L 15 11 L 17 11 L 17 7 L 15 7 z "
     transform="scale(2,2)"
     id="path4145" />
  <path
     id="rect4592"
     opacity=".2"
     fill="#fff"
     d="m6 4c-1.108 0-2 0.892-2 2v1c0-1.108 0.892-2 2-2h36c1.108 0 2 0.892 2 2v-1c0-1.108-0.892-2-2-2h-36z" />
  <path
     id="path4597"
     opacity=".3"
     d="m6 44c-1.108 0-2-0.892-2-2v-1c0 1.108 0.892 2 2 2h36c1.108 0 2-0.892 2-2v1c0 1.108-0.892 2-2 2h-36z" />
</svg>
